24x24/apps/org.o20.openpoint.svg

<svg height="24" width="24" xmlns="http://www.w3.org/2000/svg"><path d="m13 22.5a10.03 10.03 0 0 0 10-10h-20a10.03 10.03 0 0 0 10 10z" opacity=".2"/><path d="m13 2a10.03 10.03 0 0 0 -10 10l12.67 2.67z" fill="#ed6c47"/><path d="m13 2a10.03 10.03 0 0 1 10 10l-5 3.399-5-3.399z" fill="#ff8f6b"/><path d="m13 2a10.03 10.03 0 0 0 -10 10l.018.004a10.03 10.03 0 0 1 9.982-9.504 10.03 10.03 0 0 1 9.975 9.518l.025-.018a10.03 10.03 0 0 0 -10-10zm2.459 12.17.1.476.11.023-.087-.415z" fill="#f4f4f7" opacity=".2"/><path d="m13 22a10.03 10.03 0 0 0 10-10h-20a10.03 10.03 0 0 0 10 10z" fill="#d35230"/><path d="m3 12h20v.5h-20z" opacity=".1"/><path d="m1.917 6.5h9.166a.917.917 0 0 1 .917.917v9.166a.917.917 0 0 1 -.917.917h-9.166a.917.917 0 0 1 -.917-.917v-9.166a.917.917 0 0 1 .917-.917z" opacity=".1"/><path d="m1.917 6h9.166a.917.917 0 0 1 .917.917v9.166a.917.917 0 0 1 -.917.917h-9.166a.917.917 0 0 1 -.917-.917v-9.166a.917.917 0 0 1 .917-.917z" fill="#c43e1c"/><path d="m4 8.008v6.992h2v-2h.51c.451.01.899-.055 1.308-.26.359-.18.661-.468.871-.83.207-.327.314-1.015.307-1.41.037-.617-.191-1.518-.619-1.93a2.566 2.566 0 0 0 -1.787-.562zm2 1.996h.299c.466 0 .699.176.699.53a.342.342 0 0 1 -.182.327.867.867 0 0 1 -.539.141h-.277z" fill="#f9f7f7"/></svg>

<svg xmlns="http://www.w3.org/2000/svg" width="24" height="24"><path style="opacity:.2" d="M13 22.5a10.03 10.03 0 0 0 10-10H3a10.03 10.03 0 0 0 10 10z"/><path style="fill:#ed6c47" d="M13 2A10.03 10.03 0 0 0 3 12l12.67 2.67z"/><path style="fill:#ff8f6b" d="M13 2a10.03 10.03 0 0 1 10 10l-5 3.399L13 12z"/><path style="opacity:.2;fill:#f4f4f7" d="M13 2A10.03 10.03 0 0 0 3 12l.018.004A10.03 10.03 0 0 1 13 2.5a10.03 10.03 0 0 1 9.975 9.518L23 12A10.03 10.03 0 0 0 13 2zm2.459 12.17.1.476.11.023-.087-.415z"/><path style="fill:#d35230" d="M13 22a10.03 10.03 0 0 0 10-10H3a10.03 10.03 0 0 0 10 10z"/><path style="opacity:.1" d="M3 12h20v.5H3z"/><path style="opacity:.1" d="M1.917 6.5h9.166a.917.917 0 0 1 .917.917v9.166a.917.917 0 0 1-.917.917H1.917A.917.917 0 0 1 1 16.583V7.417a.917.917 0 0 1 .917-.917z"/><path style="fill:#c43e1c" d="M1.917 6h9.166a.917.917 0 0 1 .917.917v9.166a.917.917 0 0 1-.917.917H1.917A.917.917 0 0 1 1 16.083V6.917A.917.917 0 0 1 1.917 6z"/><path style="fill:#f9f7f7" d="M4 8.008V15h2v-2h.51c.451.01.899-.055 1.308-.26.359-.18.661-.468.871-.83.207-.327.314-1.015.307-1.41.037-.617-.191-1.518-.619-1.93a2.566 2.566 0 0 0-1.787-.562H4zm2 1.996h.299c.466 0 .699.176.699.53a.342.342 0 0 1-.182.327.867.867 0 0 1-.539.141H6v-.998z"/></svg>
